X:63
T:Lady Margerie
T:almost the same as Lammikin & will serve as 2. part to it & prevent monotony
Z:Jack Campin - http://www.campin.me.uk
S:Blaikie MS (NLS MS.1578) p20, Blaikie #58
M:3/4
L:1/8
V:1 midi program 1 74
V:2 midi program 1 46 bass middle = d transpose -24
Q:1/4=100
N:last note in the bass is inked as F over a
N:pencilled note that could be either E or F
K:E Minor
[V:1] EF|G2  FE GA|B2 G2 FE|E2 E2 G>A|B4
[V:2] z2|E2  e2 e2|E2 e2 e2|e2 e2 c2 |B2 b2
%
[V:1] A2|B^c d2 cB|e2 EF GA|BA G2 F2 |E4|]
[V:2] z2|g2  f2 g2|g2 e2 e2|ga b2 B2 |e4|]
W:Transcription (c) Jack Campin 2009, no mirroring or republication without permission

